newicons/business_empire.svg

<?xml version="1.0" encoding="UTF-8"?><svg id="a" xmlns="http://www.w3.org/2000/svg" viewBox="0 0 48 48"><defs><style>.n{fill:none;stroke:#fff;stroke-linecap:round;stroke-linejoin:round;}</style></defs><g id="b"><path id="c" class="n" d="M7.51898623,9.48823947l26.44881725,16.04518509c.91251755.55357742,1.6471405,1.85848045,1.6471405,2.92578888v12.86175537c0,1.06730652-.73462296,1.48088837-1.6471405.92731094L7.51898623,26.20309085c-.91251564-.55357742-1.6471405-1.85847855-1.6471405-2.92578697v-12.86175442c0-1.06730747.73462486-1.48088837,1.6471405-.92730999Z"/><path id="d" class="n" d="M35.22858763,42.33323306l5.25242615-3.18638611c.91251373-.55357742,1.6471405-1.85848236,1.6471405-2.92578888v-11.53476524c0-1.06730652-.73462677-2.37220955-1.6471405-2.92578697L14.03219938,5.71531886c-.49912357-.3027935-1.25183201-.26515293-1.75095558.03764057l-5.95458984,3.61235332"/><g id="e"><path id="f" class="n" d="M27.4914031,38.32349032c-.16575813-5.23606873-.3308506-10.7151413.07481003-15.93398285.01634026-.21018219.11055565-.41431618.24669075-.59162521"/><path id="g" class="n" d="M27.81290388,21.79788226c.1361351-.17731094.314188-.32779694.49819374-.43067932l5.99513435-3.35212326"/><path id="h" class="n" d="M14.16190195,13.51999396c.14151573-.22514534.35409737-.41759968.5752821-.54127216l5.86355591-3.27855015"/><path id="i" class="n" d="M13.92234087,30.08800906c-.1673317-5.28225517-.33965015-10.81729126.06995964-16.08698082.01303005-.16771317.07567024-.3315773.16960144-.48103428"/><path id="j" class="n" d="M17.5579524,11.40156859l13.62994003,8.35688496"/></g><g id="k"><path id="l" class="n" d="M18.04706335,27.13799113c.48163223.90583611,1.0595932,1.58826256,1.92653465,2.17842865l1.15592194.78688812c1.0595932.72131538,1.92653465.4445343,1.92653465-.61506653h0c0-1.05960274-.86694145-2.5167141-1.92653465-3.23802948l-1.25224876-.85246277c-1.0595932-.72131538-1.92653465-2.17842865-1.92653465-3.23803139h0c0-1.05960083.86694145-1.33638191,1.92653465-.61506653l1.15592003.78688812c.86693954.59016609,1.44490051,1.17626572,1.92653465,2.17842865"/><path id="m" class="n" d="M20.45523024,30.51123446v-9.63274384"/></g></g></svg>

<?xml version="1.0" encoding="UTF-8" standalone="no"?>
<svg
   viewBox="0 0 48 48"
   version="1.1"
   id="svg1"
   sodipodi:docname="business_empire.svg"
   inkscape:version="1.2.2 (b0a8486541, 2022-12-01)"
   xml:space="preserve"
   xmlns:inkscape="http://www.inkscape.org/namespaces/inkscape"
   xmlns:sodipodi="http://sodipodi.sourceforge.net/DTD/sodipodi-0.dtd"
   xmlns="http://www.w3.org/2000/svg"
   xmlns:svg="http://www.w3.org/2000/svg"><sodipodi:namedview
     id="namedview1"
     pagecolor="#505050"
     bordercolor="#eeeeee"
     borderopacity="1"
     inkscape:showpageshadow="0"
     inkscape:pageopacity="0"
     inkscape:pagecheckerboard="0"
     inkscape:deskcolor="#505050"
     inkscape:zoom="17.8125"
     inkscape:cx="28.8"
     inkscape:cy="27.284211"
     inkscape:window-width="1918"
     inkscape:window-height="1053"
     inkscape:window-x="0"
     inkscape:window-y="0"
     inkscape:window-maximized="1"
     inkscape:current-layer="svg1"
     showgrid="false" /><defs
     id="defs1"><style
       id="style1">.a { fill:none;stroke:#fff;stroke-linecap:round;stroke-linejoin:round; }
</style></defs><g
     id="g24501"><path
       style="fill:none;stroke:#ffffff;stroke-width:1;stroke-linecap:round;stroke-linejoin:round"
       d="M 7.5189869,9.4963909 33.967804,25.541577 c 0.912517,0.553578 1.647141,1.85848 1.647141,2.925788 v 12.861754 c 0,1.067308 -0.734624,1.480887 -1.647141,0.92731 L 7.5189869,26.211243 C 6.6064711,25.657665 5.8718464,24.352764 5.8718464,23.285456 V 10.423701 c 0,-1.0673078 0.7346247,-1.4808881 1.6471405,-0.9273101 z"
       id="path24464" /><path
       style="fill:none;stroke:#ffffff;stroke-width:1;stroke-linecap:round;stroke-linejoin:round"
       d="M 35.228588,42.341386 40.481013,39.155 c 0.912515,-0.553578 1.647141,-1.858481 1.647141,-2.925787 V 24.694444 c 0,-1.067306 -0.734626,-2.37221 -1.647141,-2.925787 L 14.0322,5.7234707 C 13.533076,5.4206772 12.780368,5.4583178 12.281244,5.7611113 L 6.3266545,9.373465"
       id="path24462" /><g
       id="g24488"><path
         style="fill:none;stroke:#ffffff;stroke-width:1;stroke-linecap:round;stroke-linejoin:round"
         d="m 27.491403,38.331643 c -0.165759,-5.236068 -0.330851,-10.715142 0.07481,-15.933983 0.01634,-0.210182 0.110555,-0.414316 0.24669,-0.591626"
         id="path24460" /><path
         style="fill:none;stroke:#ffffff;stroke-width:1;stroke-linecap:round;stroke-linejoin:round"
         d="m 27.812904,21.806034 c 0.136136,-0.17731 0.314188,-0.327796 0.498193,-0.43068 l 5.995136,-3.352124"
         id="path24458" /><path
         style="fill:none;stroke:#ffffff;stroke-width:1;stroke-linecap:round;stroke-linejoin:round"
         d="M 14.161902,13.528146 C 14.303418,13.303 14.516,13.110546 14.737185,12.986874 L 20.60074,9.7083232"
         id="path24456" /><path
         style="fill:none;stroke:#ffffff;stroke-width:1;stroke-linecap:round;stroke-linejoin:round"
         d="m 13.922341,30.09616 c -0.167332,-5.282255 -0.33965,-10.817291 0.06996,-16.08698 0.01303,-0.167713 0.07567,-0.331577 0.169601,-0.481034"
         id="path24454" /><path
         style="fill:none;stroke:#ffffff;stroke-width:1;stroke-linecap:round;stroke-linejoin:round"
         d="m 17.557953,11.40972 13.62994,8.356885"
         id="path24452" /></g><g
       id="g24481"><path
         style="fill:none;stroke:#ffffff;stroke-width:1;stroke-linecap:round;stroke-linejoin:round"
         d="m 18.047064,27.146143 c 0.481633,0.905836 1.059594,1.588263 1.926534,2.178429 l 1.155921,0.786889 c 1.059593,0.721315 1.926534,0.444535 1.926534,-0.615067 v 0 c 0,-1.059602 -0.866941,-2.516715 -1.926534,-3.23803 L 19.877271,25.405901 C 18.817678,24.684585 17.950737,23.227472 17.950737,22.16787 v 0 c 0,-1.059601 0.866941,-1.336382 1.926534,-0.615067 l 1.155921,0.786889 c 0.86694,0.590167 1.4449,1.176266 1.926534,2.178429"
         id="path24450" /><path
         style="fill:none;stroke:#ffffff;stroke-width:1;stroke-linecap:round;stroke-linejoin:round"
         d="M 20.455231,30.519387 V 20.886643"
         id="line9573" /></g></g></svg>
